build/svg/cmd/sc_hideallnotes.svg

<?xml version="1.0" encoding="UTF-8" standalone="no"?>
<svg
   xmlns:dc="http://purl.org/dc/elements/1.1/"
   xmlns:cc="http://creativecommons.org/ns#"
   xmlns:rdf="http://www.w3.org/1999/02/22-rdf-syntax-ns#"
   xmlns:svg="http://www.w3.org/2000/svg"
   xmlns="http://www.w3.org/2000/svg"
   xmlns:sodipodi="http://sodipodi.sourceforge.net/DTD/sodipodi-0.dtd"
   xmlns:inkscape="http://www.inkscape.org/namespaces/inkscape"
   viewBox="0 0 16 16"
   version="1.1"
   id="svg4"
   sodipodi:docname="sc_hideallnotes.svg"
   inkscape:version="0.92.5 (2060ec1f9f, 2020-04-08)"
   inkscape:export-filename="/home/jupiter007/Libreoffice yaru theme fullcolor/build/cmd/sc_hideallnotes.png"
   inkscape:export-xdpi="95"
   inkscape:export-ydpi="95">
  <metadata
     id="metadata10">
    <rdf:RDF>
      <cc:Work
         rdf:about="">
        <dc:format>image/svg+xml</dc:format>
        <dc:type
           rdf:resource="http://purl.org/dc/dcmitype/StillImage" />
      </cc:Work>
    </rdf:RDF>
  </metadata>
  <defs
     id="defs8" />
  <sodipodi:namedview
     pagecolor="#ffffff"
     bordercolor="#666666"
     borderopacity="1"
     objecttolerance="10"
     gridtolerance="10"
     guidetolerance="10"
     inkscape:pageopacity="0"
     inkscape:pageshadow="2"
     inkscape:window-width="1920"
     inkscape:window-height="1011"
     id="namedview6"
     showgrid="true"
     inkscape:zoom="41.7193"
     inkscape:cx="6.9208038"
     inkscape:cy="3.118204"
     inkscape:window-x="0"
     inkscape:window-y="32"
     inkscape:window-maximized="1"
     inkscape:current-layer="svg4">
    <inkscape:grid
       type="xygrid"
       id="grid823" />
  </sodipodi:namedview>
  <path
     id="path20"
     style="opacity:0.6;fill:#000000;fill-opacity:1;fill-rule:nonzero;stroke:#000000;stroke-width:2;stroke-linecap:butt;stroke-linejoin:round;stroke-miterlimit:4;stroke-dasharray:none;stroke-dashoffset:0;stroke-opacity:1"
     d="m 5,1.9976218 c -2,0 -3,0 -3,1.9999999 v 3.0000002 c 0,1.999999 1,1.999999 3,1.999999 h 2 2 c 2,0 3,0 3,-1.999999 v -1 -2.0000002 C 12,1.9976218 11,1.9976218 9,1.9976218 Z"
     inkscape:connector-curvature="0"
     sodipodi:nodetypes="sssccsscsss" />
  <path
     sodipodi:nodetypes="sssccsscsss"
     inkscape:connector-curvature="0"
     d="m 5,1.9976218 c -2,0 -3,0 -3,1.9999999 v 3.0000002 c 0,1.999999 1,1.999999 3,1.999999 h 2 2 c 2,0 3,0 3,-1.999999 v -1 -2.0000002 C 12,1.9976218 11,1.9976218 9,1.9976218 Z"
     style="opacity:1;fill:#fa9381;fill-opacity:1;fill-rule:nonzero;stroke:none;stroke-width:0.00106905;stroke-linecap:butt;stroke-linejoin:round;stroke-miterlimit:4;stroke-dasharray:none;stroke-dashoffset:0;stroke-opacity:1"
     id="path22" />
  <path
     sodipodi:nodetypes="sssssss"
     inkscape:connector-curvature="0"
     id="path24"
     d="M 4.333333,3.9951922 H 9.666666 C 9.851334,3.9951922 10,4.2181923 10,4.4951923 10,4.7721924 9.851334,4.9951924 9.666666,4.9951924 H 4.333333 C 4.148667,4.9951924 4,4.7721924 4,4.4951923 4,4.2181923 4.148667,3.9951922 4.333333,3.9951922 Z"
     style="opacity:1;fill:#ffffff;fill-opacity:1;fill-rule:nonzero;stroke:none;stroke-width:0.00097591;stroke-linecap:butt;stroke-linejoin:round;stroke-miterlimit:4;stroke-dasharray:none;stroke-dashoffset:0;stroke-opacity:1" />
  <path
     style="opacity:1;fill:#ffffff;fill-opacity:1;fill-rule:nonzero;stroke:none;stroke-width:0.00097591;stroke-linecap:butt;stroke-linejoin:round;stroke-miterlimit:4;stroke-dasharray:none;stroke-dashoffset:0;stroke-opacity:1"
     d="m 4.333333,5.9951929 h 5.333333 c 0.184668,0 0.333334,0.223 0.333334,0.5 0,0.276999 -0.148666,0.5 -0.333334,0.5 H 4.333333 C 4.148667,6.9951929 4,6.7721919 4,6.4951929 c 0,-0.277 0.148667,-0.5 0.333333,-0.5 z"
     id="path26"
     inkscape:connector-curvature="0"
     sodipodi:nodetypes="sssssss" />
  <path
     sodipodi:nodetypes="sssccsscsss"
     inkscape:connector-curvature="0"
     d="m 7,7.0023795 c -2,0 -3,0 -3,1.9999998 v 2.9999997 c 0,1.999999 1,1.999999 3,1.999999 h 2 2 c 2,0 3,0 3,-1.999999 v -1 -1.9999997 C 14,7.0023795 13,7.0023795 11,7.0023795 Z"
     style="opacity:0.6;fill:#000000;fill-opacity:1;fill-rule:nonzero;stroke:#000000;stroke-width:2;stroke-linecap:butt;stroke-linejoin:round;stroke-miterlimit:4;stroke-dasharray:none;stroke-dashoffset:0;stroke-opacity:1"
     id="path816" />
  <path
     id="rect823"
     style="opacity:1;fill:#fa9381;fill-opacity:1;fill-rule:nonzero;stroke:none;stroke-width:0.00106905;stroke-linecap:butt;stroke-linejoin:round;stroke-miterlimit:4;stroke-dasharray:none;stroke-dashoffset:0;stroke-opacity:1"
     d="m 7,7.0023795 c -2,0 -3,0 -3,1.9999998 v 2.9999997 c 0,1.999999 1,1.999999 3,1.999999 h 2 2 c 2,0 3,0 3,-1.999999 v -1 -1.9999997 C 14,7.0023795 13,7.0023795 11,7.0023795 Z"
     inkscape:connector-curvature="0"
     sodipodi:nodetypes="sssccsscsss" />
  <path
     style="opacity:1;fill:#ffffff;fill-opacity:1;fill-rule:nonzero;stroke:none;stroke-width:0.00097591;stroke-linecap:butt;stroke-linejoin:round;stroke-miterlimit:4;stroke-dasharray:none;stroke-dashoffset:0;stroke-opacity:1"
     d="m 6.333333,8.9999498 h 5.333333 C 11.851334,8.9999498 12,9.2229499 12,9.4999499 12,9.77695 11.851334,9.99995 11.666666,9.99995 H 6.333333 C 6.148667,9.99995 6,9.77695 6,9.4999499 6,9.2229499 6.148667,8.9999498 6.333333,8.9999498 Z"
     id="path822"
     inkscape:connector-curvature="0"
     sodipodi:nodetypes="sssssss" />
  <path
     sodipodi:nodetypes="sssssss"
     inkscape:connector-curvature="0"
     id="path828"
     d="m 6.333333,10.99995 h 5.333333 c 0.184668,0 0.333334,0.223 0.333334,0.5 0,0.276999 -0.148666,0.5 -0.333334,0.5 H 6.333333 C 6.148667,11.99995 6,11.776949 6,11.49995 c 0,-0.277 0.148667,-0.5 0.333333,-0.5 z"
     style="opacity:1;fill:#ffffff;fill-opacity:1;fill-rule:nonzero;stroke:none;stroke-width:0.00097591;stroke-linecap:butt;stroke-linejoin:round;stroke-miterlimit:4;stroke-dasharray:none;stroke-dashoffset:0;stroke-opacity:1" />
  <circle
     style="opacity:0.6;fill:#000000;fill-opacity:1;fill-rule:evenodd;stroke:#000000;stroke-width:2;stroke-linecap:butt;stroke-linejoin:round;stroke-miterlimit:4;stroke-dasharray:none;stroke-opacity:1"
     id="path831"
     cx="12.000001"
     cy="12"
     r="3" />
  <circle
     r="3"
     cy="12"
     cx="12.000001"
     id="circle833"
     style="opacity:1;fill:#ffffff;fill-opacity:1;fill-rule:evenodd;stroke:none;stroke-width:2;stroke-linecap:butt;stroke-linejoin:round;stroke-miterlimit:4;stroke-dasharray:none;stroke-opacity:1" />
  <path
     d="m 12,10 c -1.104569,0 -2,0.895431 -2,2 0,1.10457 0.895431,2 2,2 1.104569,0 2,-0.89543 2,-2 0.02896,-0.194894 0.02896,-0.392997 0,-0.587891 C 13.825992,11.801139 13.42455,12.037143 13,12 12.447715,12 12,11.552285 12,11 11.96318,10.574973 12.200048,10.173388 12.589844,10 12.39431,9.97085 12.195534,9.97085 12,10 Z"
     id="path2-3"
     inkscape:connector-curvature="0"
     style="fill:#232629"
     sodipodi:nodetypes="csscccccc" />
  <rect
     style="opacity:0.6;fill:#aee3f8;fill-opacity:1;fill-rule:evenodd;stroke:#000000;stroke-width:2;stroke-linecap:butt;stroke-linejoin:round;stroke-miterlimit:4;stroke-dasharray:none;stroke-opacity:1"
     id="rect845"
     width="1"
     height="9"
     x="17.127434"
     y="-4.5000219"
     transform="rotate(45)"
     inkscape:transform-center-x="3.559322"
     inkscape:transform-center-y="-0.47457627" />
  <rect
     y="-4.5000219"
     x="17.127434"
     height="9"
     width="1"
     id="rect847"
     style="opacity:1;fill:#aee3f8;fill-opacity:1;fill-rule:evenodd;stroke:none;stroke-width:2;stroke-linecap:butt;stroke-linejoin:round;stroke-miterlimit:4;stroke-dasharray:none;stroke-opacity:1"
     transform="rotate(45)"
     inkscape:transform-center-x="3.559322"
     inkscape:transform-center-y="-0.47457627" />
</svg>

<svg xmlns="http://www.w3.org/2000/svg" viewBox="0 0 16 16"><path d="M5 1.998c-2 0-3 0-3 2v3c0 2 1 2 3 2h4c2 0 3 0 3-2v-3c0-2-1-2-3-2z" opacity=".6" stroke="#000" stroke-width="2" stroke-linejoin="round"/><path d="M5 1.998c-2 0-3 0-3 2v3c0 2 1 2 3 2h4c2 0 3 0 3-2v-3c0-2-1-2-3-2z" fill="#fa9381"/><path d="M4.333 3.995h5.334c.184 0 .333.223.333.5s-.149.5-.333.5H4.333c-.184 0-.333-.223-.333-.5s.149-.5.333-.5zM4.333 5.995h5.334c.184 0 .333.223.333.5s-.149.5-.333.5H4.333c-.184 0-.333-.223-.333-.5s.149-.5.333-.5z" fill="#fff"/><path d="M7 7.002c-2 0-3 0-3 2v3c0 2 1 2 3 2h4c2 0 3 0 3-2v-3c0-2-1-2-3-2z" opacity=".6" stroke="#000" stroke-width="2" stroke-linejoin="round"/><path d="M7 7.002c-2 0-3 0-3 2v3c0 2 1 2 3 2h4c2 0 3 0 3-2v-3c0-2-1-2-3-2z" fill="#fa9381"/><path d="M6.333 9h5.334c.184 0 .333.223.333.5s-.149.5-.333.5H6.333C6.15 10 6 9.777 6 9.5s.149-.5.333-.5zM6.333 11h5.334c.184 0 .333.223.333.5s-.149.5-.333.5H6.333C6.15 12 6 11.777 6 11.5s.149-.5.333-.5z" fill="#fff"/><circle cx="12" cy="12" r="3" opacity=".6" fill-rule="evenodd" stroke="#000" stroke-width="2" stroke-linejoin="round"/><circle r="3" cy="12" cx="12" fill="#fff" fill-rule="evenodd"/><path d="M12 10a2 2 0 102 2 2 2 0 000-.588A1 1 0 0113 12a1 1 0 01-1-1 1 1 0 01.59-1 2 2 0 00-.59 0z" fill="#232629"/><path opacity=".6" fill="#aee3f8" fill-rule="evenodd" stroke="#000" stroke-width="2" stroke-linejoin="round" d="M15.293 8.929l.707.707L9.636 16l-.707-.707z"/><path fill="#aee3f8" fill-rule="evenodd" d="M15.293 8.929l.707.707L9.636 16l-.707-.707z"/></svg>
